X:342
T: Der Kaminfeger (4-41), S. 56
N: P0602
O: Lothringen
S: PINCK, Louis: Verklingende Weisen Bd 4, Kassel 1939]
R: Arbeitslied]
M: 2/4
L: 1/16
K: G
G2E2 | D2D2G2GB | A4
F2G2 | AGFED2^C2 | D4
G2G2 | B2BBA2B2 | c4
d3c | B2A2G2F2 | G4
G2EE | D2D2G2GB | A2A2
F2G2 | AGFED2^C2 | D4
G2G2 | B2BBA2B2 | c4
d3c | B2A2G2F2 | G4

@@@ Tune index: 7892
